res/skins/LateNight/buttons/btn_keylock_over.svg

<?xml version="1.0" encoding="UTF-8" standalone="no"?>
<!-- Created with Inkscape (http://www.inkscape.org/) -->

<svg
   xmlns:dc="http://purl.org/dc/elements/1.1/"
   xmlns:cc="http://creativecommons.org/ns#"
   xmlns:rdf="http://www.w3.org/1999/02/22-rdf-syntax-ns#"
   xmlns:svg="http://www.w3.org/2000/svg"
   xmlns="http://www.w3.org/2000/svg"
   version="1.1"
   width="25"
   height="18"
   viewBox="0 0 25 18"
   id="svg2">
  <metadata
     id="metadata10">
    <rdf:RDF>
      <cc:Work
         rdf:about="">
        <dc:format>image/svg+xml</dc:format>
        <dc:type
           rdf:resource="http://purl.org/dc/dcmitype/StillImage" />
        <dc:title></dc:title>
      </cc:Work>
    </rdf:RDF>
  </metadata>
  <defs
     id="defs8" />
  <path
     d="M 12.5,3 C 10.567003,3 9,4.5670034 9,6.5 L 9,8 7,8 7,15 18,15 18,8 16,8 16,6.5 C 16,4.5670034 14.432997,3 12.5,3 z m 0,2 C 13.328427,5 14,5.6715729 14,6.5 L 14,8 11,8 11,6.5 C 11,5.6715729 11.671573,5 12.5,5 z m -0.5,5 1,0 0,3 -1,0 0,-3 z"
     id="rect4195"
     style="color:#000000;fill:#55f864;fill-opacity:1;fill-rule:nonzero;stroke:none;stroke-width:2.25;marker:none;visibility:visible;display:inline;overflow:visible;enable-background:accumulate" />
</svg>

<?xml version="1.0" encoding="UTF-8"?>
<!-- Created with Inkscape (http://www.inkscape.org/) -->
<svg id="svg2" width="25" height="18" version="1.1" viewBox="0 0 25 18" xmlns="http://www.w3.org/2000/svg" xmlns:cc="http://creativecommons.org/ns#" xmlns:dc="http://purl.org/dc/elements/1.1/" xmlns:rdf="http://www.w3.org/1999/02/22-rdf-syntax-ns#">
 <metadata id="metadata10">
  <rdf:RDF>
   <cc:Work rdf:about="">
    <dc:format>image/svg+xml</dc:format>
    <dc:type rdf:resource="http://purl.org/dc/dcmitype/StillImage"/>
    <dc:title/>
   </cc:Work>
  </rdf:RDF>
 </metadata>
 <path id="rect4195" d="m12.5 3c-1.933 0-3.5 1.567-3.5 3.5v1.5h-2v7h11v-7h-2v-1.5c0-1.933-1.567-3.5-3.5-3.5zm0 2c0.82843 0 1.5 0.67157 1.5 1.5v1.5h-3v-1.5c0-0.82843 0.67157-1.5 1.5-1.5zm-0.5 5h1v3h-1v-3z" color="#000000" fill="#55f864"/>
</svg>
